X: 33911
T: Red Rose, The
R: waltz
M: 3/4
K: Gmajor
"G"B6|B4 c2|B4 d2|d4 c2|"Em"B2 A2 G2|"A7" F2 G2 E2|"D"D6|DE FG AB|
"Am" c6|"E" B2 A^G Ac|"Am"c4 ^c2|"D" d4 c2|"G" B2 A2 G2|"A7" FA G2 E2|"D" D6|d2 ^c2 =c2|
"G" B6|B4 c2|B4 d2|d4 c2|"Em"B2 A2 G2|"A7" F2 G2 E2|"D" D6|"G" G4 F2|
"C" E2 ^D2 E2|"D/f#"F4 D2|"G" G2 F2 G2|"Am" A4 B2|c4 A2|"D" F4 D2|"D7" {E}D2 ^C2 D2|"G" G6|
|:"D" D2 E2 F2|"G" G2 A2 B2|"D7"c f3 c2|"G" e4 d2|"C9"D2 G2 c2|"G" B4 A2|D2 F2 ^C2|"Am/c"E4 D2|
"D" D2 E2 F2|"G" G2 A2 B2|"D7"c f3 c2|"G" e4 d2|D2 G2 c2|"Cmaj7" B4B A|"G"G6|1 G2 F2 E2:|2 G2z2 Bc||
|:"G" d2 c2 B2|"C" A2 G2 C2|E4 ^D2|"Am" E4 AB|c2 B2 A2|"Em" G2 F2 E2|"D" D2 Dc dF|D4 Bc|
"G"d2 c2 B2|"C" A2 G2 C2|C4 C2|"Am"c6|"G" B,2 C2 ^C2|"D"D B4 A|"G"G6|G6:|
"G" D6|"C" E4 D2|"D" F2 F>G F>D|"D"A,6|"G" B,2 C2 D2|"Em" E2 B,2 D2|"G"B2 B>c BG|D6|
D2 G2 B2|"Bm"d4 d2|"C9"d2 c2 A2|"Am"E6|"G/b" B,2 C2 ^C2|"D"D B3 A2|"G" G6:|

